!!!!SEGMENT: pl-kozmzk--mzk-m-73_chodkiewicz-zofia--le-vieux-gondolier.krn
!!!cenid: 18xx:2956
!!!COM: Chodkiewicz, Zofia
!!!COM-rismid: pe30113022
!!!CDT: 1803-1871
!!!CNT:
!!!OTL: Le Vieux gondolier
!!!PDT: 1850
!!!AGN: Secular
!!!SMS-siglum: PL-KOZmzk
!!!SMS-shelfmark: mzk/m/73
!!!SMS-shelfwork: W
!!!SMS-variant:
!!!SMS-altvar:
!!!NIFC-rismid: 1001033730
!!!URL-scan: https://repozytorium.nifc.pl/islandora/object/pl-kozmzk%3A12072/datastream/PDF/view
!!!ONB-nifc:
!!!OMD: Allegretto.
**kern	**kern	**dynam	**kern	**text	**dynam
*part2	*part2	*part2	*part1	*part1	*part1
*staff3	*staff2	*	*staff1	*staff1	*
*Ipiano	*Ipiano	*	*Ivox	*	*
*I"PIANO	*I"PIANO	*	*I"CHANT	*	*
*clefF4	*clefG2	*	*clefG2	*	*
*k[b-e-a-d-]	*k[b-e-a-d-]	*	*k[b-e-a-d-]	*	*
*f:	*f:	*	*f:	*	*
*M3/8	*M3/8	*	*M3/8	*	*
=1	=1	=1	=1	=1	=1
!	!LO:TX:t=[segno]	!	!	!	!
4.EEn\ 4.En	(16c\LL	<	4.r	.	.
.	16g\	.	.	.	.
.	16b-\	.	.	.	.
.	16cc\	.	.	.	.
.	16b-\	.	.	.	.
.	16g\JJ)	[[	.	.	.
=2	=2	=2	=2	=2	=2
4.FF\ 4.F	(16d-\LL	sf >	4.r	.	.
.	16g\	.	.	.	.
.	16b-\	.	.	.	.
.	16dd-\	.	.	.	.
.	16b-\	.	.	.	.
.	16g\JJ)	]]	.	.	.
=3	=3	=3	=3	=3	=3
4.EEn\ 4.En	(16c\LL	<	4.r	.	.
.	16g\	.	.	.	.
.	16b-\	.	.	.	.
.	16cc\	.	.	.	.
.	16b-\	.	.	.	.
.	16g\JJ)	[[	.	.	.
=4	=4	=4	=4	=4	=4
4.FF\ 4.F	(16d-\LL	sf >	4.r	.	.
.	16g\	.	.	.	.
.	16b-\	.	.	.	.
.	16dd-\	.	.	.	.
.	16b-\	.	.	.	.
.	16g\JJ)	]]	.	.	.
=5	=5	=5	=5	=5	=5
4EEn\ 4En	(16c\LL	<	4.r	.	.
.	16g\	.	.	.	.
.	16cc\	.	.	.	.
.	16b-\JJ	.	.	.	.
8FF\ 8F	16r	[	.	.	.
.	16c/) 16f 16a-	>	.	.	.
=6	=6	=6	=6	=6	=6
16BB-/	16r	.	4.r;	.	.
16r	16B-/ 16d- 16g	.	.	.	.
16C/	16r	.	.	.	.
16r	16A-/ 16c 16f	.	.	.	.
16CC/	16r	.	.	.	.
16r;	16G;/ 16c 16en	]	.	.	.
=7	=7	=7	=7	=7	=7
4.FF\ 4.F	8r	.	8f/	Un	.
.	16A-/LL 16c 16f	.	8dd-\	vieux	.
.	16A-/J 16c 16f	.	.	.	.
.	8A-/J 8c 8f	.	8cc\	Pé-	.
=8	=8	=8	=8	=8	=8
4.FF\ 4.F	8r	.	4cc\	-cheur	.
.	16A-/LL 16c 16f	.	.	.	.
.	16A-/J 16c 16f	.	.	.	.
.	8A-/J 8c 8f	.	8cc\	de	.
=9	=9	=9	=9	=9	=9
!	!	!	!	!	!LO:DY:a
4.EE-\ 4.E-	8r	.	4b-\	Pi-	<
.	16B-/LL 16d- 16e- 16g	.	.	.	.
.	16B-/J 16d- 16e- 16g	.	.	.	.
.	8B-/J 8d- 8e- 8g	.	8ee-\	.	[[
=10	=10	=10	=10	=10	=10
4.AA-\ 4.A-	8r	.	4.cc\	-se,	.
.	16c/LL 16e- 16a-	.	.	.	.
.	16c/J 16e- 16a-	.	.	.	.
.	8c/J 8e- 8a-	.	.	.	.
!!LO:LB:g=original
=11	=11	=11	=11	=11	=11
4.EE-\ 4.E-	8r	.	8r	.	.
.	16c/LL 16e- 16a-	.	8ee-\	sa	.
.	16c/J 16e- 16a-	.	.	.	.
.	8c/J 8e- 8a-	.	8ee-\	gui-	.
=12	=12	=12	=12	=12	=12
4.EE-\ 4.E-	8r	.	8ee-\	-tar-	.
.	16B-/LL 16d- 16e- 16g	.	16dd-\LL	-re	.
.	16B-/J 16d- 16e- 16g	.	16ee-\	à	.
.	8B-/J 8d- 8e- 8g	.	16ff\	la	.
.	.	.	16ee-\JJ	.	.
=13	=13	=13	=13	=13	=13
4AA-\ 4A-	8c/L 8a-	.	4.cc\	main	.
.	8e-/ 8cc	.	.	.	.
8E-\	8d-/J 8b-	.	.	.	.
=14	=14	=14	=14	=14	=14
4.AA-\ 4.A-	4.c/ 4.a-	.	4.r	.	.
=15	=15	=15	=15	=15	=15
4.FF\ 4.F	8r	.	8cc\	Gon-	.
.	16c/LL 16e- 16f 16an	.	8cc\	-do-	.
.	16c/J 16e- 16f 16a	.	.	.	.
.	8c/J 8e- 8f 8a	.	8cc\	-lier	.
=16	=16	=16	=16	=16	=16
4.FF\ 4.F	8r	.	4ff^\	à	.
.	16c/LL 16e- 16f 16an	.	.	.	.
.	16c/J 16e- 16f 16a	.	.	.	.
.	8c/J 8e- 8f 8a	.	8ee-\	Ve-	.
=17	=17	=17	=17	=17	=17
4.BB-\ 4.B-	8r	.	4dd-^\	-ni-	.
.	16d-/LL 16f 16b-	.	.	.	.
.	16d-/J 16f 16b-	.	.	.	.
.	8d-/J 8f 8b-	.	8cc\	.	.
=18	=18	=18	=18	=18	=18
4.BB-\ 4.B-	8r	.	4.b-\	-se	.
.	16d-/LL 16f 16b-	.	.	.	.
.	16d-/J 16f 16b-	.	.	.	.
.	8d-/J 8f 8b-	.	.	.	.
=19	=19	=19	=19	=19	=19
4.EE-\ 4.E-	8r	.	8r	.	.
.	16B-/LL 16d- 16e- 16g	.	[8ee-\L	ré-	.
.	16B-/J 16d- 16e- 16g	.	.	.	.
.	8B-/J 8d- 8e- 8g	.	8ee-\J]	-pé-	.
=20	=20	=20	=20	=20	=20
4.EE-\ 4.E-	8r	.	(8ee-\	-tait	.
.	16B-/LL 16d- 16e- 16g	.	8dd-\	ce	.
.	16B-/J 16d- 16e- 16g	.	.	.	.
.	8B-/J 8d- 8e- 8g	.	8b-\	re-	.
=21	=21	=21	=21	=21	=21
4AA-\ 4A-	8d-/L 8a-	<	4.a-\)	-frain.	.
.	8e-/ 8cc	[ >	.	.	.
8E-\	8d-/J 8b-	]]	.	.	.
!!LO:LB:g=original
=22	=22	=22	=22	=22	=22
4.AA-\ 4.A-	4.c/ 4.a-	.	4.r	.	.
=23	=23	=23	=23	=23	=23
4.EEn\ 4.En	(16c/LL	>	(8cc^\	Sur	.
.	16g/	.	.	.	.
.	16b-/	]	[8cc\	l'on-	.
.	16cc/	.	.	.	.
.	16b-/	.	8cc\]	-de et	.
.	16g/JJ)	.	.	.	.
=24	=24	=24	=24	=24	=24
4.FF\ 4.F	(16d-/LL	.	[4dd-^\	dans	.
.	16g/	.	.	.	.
.	16b-/	.	.	.	.
.	16dd-/	.	.	.	.
.	16b-/	.	8dd-\]	la	.
.	16g/JJ)	.	.	.	.
=25	=25	=25	=25	=25	=25
!	!	!	!	!	!LO:DY:a
4.EEn\ 4.En	(16c/LL	<	4.cc\	vi-	<[
.	16g/	.	.	.	.
.	16b-/	.	.	.	.
.	16cc/	[	.	.	.
.	16b-/	.	.	.	.
.	16g/JJ)	.	.	.	.
=26	=26	=26	=26	=26	=26
!	!	!	!	!	!LO:DY:a
4.FF\ 4.F	(16d-/LL	sf >	4.dd-^\	-e	sf
.	16g/	.	.	.	.
.	16b-/	]	.	.	.
.	16dd-/	.	.	.	.
.	16b-/	.	.	.	.
.	16g/JJ)	.	.	.	.
=27	=27	=27	=27	=27	=27
!	!	!	!	!	!LO:DY:a
4.EEn\ 4.En	(16c/LL	<	8cc\	que	<
.	16g/	.	.	.	.
.	16b-/	.	8cc\	d'-	.
.	16cc/	.	.	.	.
.	16b-/	.	8cc\	-ecueils	[[
.	16g/JJ)	[[	.	.	.
=28	=28	=28	=28	=28	=28
!	!	!	!	!	!LO:DY:a
4.FF\ 4.F	(16d-/LL	sf >	4dd-^\	cha-	sf
.	16g/	.	.	.	.
.	16b-/	]	.	.	.
.	16dd-/	.	.	.	.
.	16b-/	.	8dd-\	-que	.
.	16g/JJ)	.	.	.	.
=29	=29	=29	=29	=29	=29
4.EEn\ 4.En	(16c/LL	.	4.cc\)	Jour!	.
.	16g/	.	.	.	.
.	16b-/	.	.	.	.
.	16cc/	.	.	.	.
.	16b-/	.	.	.	.
.	16g/JJ)	.	.	.	.
=30	=30	=30	=30	=30	=30
4.EEn\ 4.En	(16c/LL	.	4.r	.	.
.	16g/	.	.	.	.
.	16b-/	.	.	.	.
.	16cc/	.	.	.	.
.	16b-/	.	.	.	.
.	16g/JJ)	.	.	.	.
!!LO:PB:g=original
=31	=31	=31	=31	=31	=31
!	!	!	!	!	!LO:DY:a
4.E-X\ 4.e-X	8r	.	8cc\	Im-	<
.	16g-X/LL 16an	.	8cc\	-pru-	.
.	16g-/J 16a	.	.	.	.
.	8g-/J 8a	.	8cc\	-dent	.
=32	=32	=32	=32	=32	=32
4.E-\ 4.e-	8r	.	4ff\	qui	.
.	16f/LL 16an	.	.	.	.
.	16f/J 16a	.	.	.	.
.	8f/J 8a	.	8ff\	se	[[
=33	=33	=33	=33	=33	=33
!	!	!	!LO:TX:t=P:problem:diminuendolikeaccent	!	!LO:DY:a
4.Dn\ 4.dn	8r	.	(4.ff^\	fi-	sf
.	16f/LL 16b-	.	.	.	.
.	16f/J 16b-	.	.	.	.
.	8f/J 8b-	.	.	.	.
=34	=34	=34	=34	=34	=34
4.D-X\ 4.d-X	8r	.	8bn\)	-se	.
.	16f/LL 16bn	.	8b\	à	.
.	16f/J 16b	.	.	.	.
.	8f/J 8b	.	8b\	la	.
=35	=35	=35	=35	=35	=35
4.C\ 4.c	8r	.	[4.cc\	Mer	.
!	!	!LO:HP:t=cresc	!	!	!
.	16f/LL 16a- 16cc	<	.	.	.
.	16f/J 16a- 16cc	.	.	.	.
.	8f/J 8a- 8cc	.	.	.	.
=36	=36	=36	=36	=36	=36
4.C\ 4.c	8r	ff	8cc\]	.	.
.	16en\LL 16g 16b- 16een	.	8dd-^\	à	.
.	16e\J 16g 16b- 16ee	.	.	.	.
.	8e\J 8g 8b- 8ee	.	8cc\	l'A-	.
=37	=37	=37	=37	=37	=37
!	!	!	!	!	!LO:DY:a
4.D-X\ 4.d-X	8r	ff	[4.ff\	-mour	sf
.	16f\LL 16a- 16ff	.	.	.	.
.	16f\J 16a- 16ff	.	.	.	.
.	8f\J 8a- 8ff	.	.	.	.
=38	=38	=38	=38	=38	=38
4.D-\ 4.d-	8r	.	(8ff\]	.	.
!	!	!LO:HP:t=dim	!	!	!
.	16f/LL 16a- 16bn	>	8bn\)	à	.
!LO:TX:b=2:t=Da capo la Ritournelle	!	!	!	!	!
.	16f/J 16a- 16b	.	.	.	.
.	8f/J 8a- 8b	.	8b\	la	.
=39	=39	=39	=39	=39	=39
4.C\ 4.c	8r	.	(<4.cc\	Mer	.
.	16f/LL 16a- 16cc	.	.	.	.
.	16f/J 16a- 16cc	.	.	.	.
.	8f/J 8a- 8cc	.	.	.	.
=40	=40	=40	=40	=40	=40
4.CC/ 4.C	8r	.	8g/)	.	.
!	!LO:TX:b:t=ralentando	!	!LO:TX:t=P:problem:diminuendolikeaccent	!	!
.	16A-/LL 16B- 16c 16en	.	8b-^/	à	.
.	16A-/J 16B- 16c 16e	.	.	.	.
.	8A-/J 8B- 8c 8e	.	8a-/	l'A-	.
=41	=41	=41	=41	=41	=41
8FF\L 8F	8A-/L 8f	.	4.f/	-mour.	.
8C\	8A-/ 8c	.	.	.	.
8AA-\J	8A-/J 8c 8a-	.	.	.	.
=42	=42	=42	=42	=42	=42
!LO:TX:b:t=Da capo La Ritournelle	!	!	!LO:TX:t=[segno]:nad kreską	!	!
4.FF\ 4.F	4.A-/ 4.c 4.f	.	4.r	.	.
==	==	==	==	==	==
*-	*-	*-	*-	*-	*-
!!!system-decoration: s1{(s2,s3)}
!!!AIN: 1 piano 1 vox
!!!ENC: Marcin Jachim
!!!END: 2021-08-13
!!!ENC: Kamil Watkowski
!!!END: 2021-09-09
!!!RDF**kern: > = above
!!!RDF**kern: < = below
